X:1
T:Title
%%score { ( 1 3 ) | ( 2 4 ) }
L:1/8
M:4/4
K:F
V:1 treble nm="Grand Piano"
V:3 treble 
V:2 bass 
V:4 bass 
V:1
 z4 z2[Q:1/4=100] C>C | F>F F>G A2 G>F | c6 z2 | F>F F>G A2 G>F | G6 z2 | F>F F>G A2 G>F | %6
[M:3/4] c6 |[M:1/4] [DFB]>[DFB] |[M:4/4] [CFA]3 F G2 G2 |[M:3/4] F6 |[M:1/4] A>B | %11
[M:4/4] c>c c>c c2 A>B | c6 z2 | G6 z2 | c6 z2 |[M:3/4] F>F F>G A2 |[M:1/4] G>F | %17
[M:9/8] [DB]>[DB][DB]- [DB]/[DB]/ [Fd]2- [Fd][Fd]>[Fd] |[M:4/4] c3 B A2 G2 |[M:3/4] F6 |] %20
V:2
 z4 z2 [F,A,]>[F,A,] | [F,A,C]>[F,A,C] [F,A,C]>[F,B,C] [F,CF]2 [F,B,C]>[F,A,C] | %2
 [F,A,F]2 [C,B,]2 [F,A,]2 [F,A,]>[F,A,] | [F,A,C]>[F,A,C] [F,A,C]>[F,B,C] [F,CF]2 [F,B,C]>[F,A,C] | %4
 [C,C]2 [C,C][C,C] [C,B,]2 [C,B,]>[C,B,] | %5
 [F,A,C]>[F,A,C] [F,A,C]>[F,B,C] [F,CF]2 [F,B,C]>[F,A,C] |[M:3/4] [F,A,F]2 [C,B,][C,B,] [F,A,]2 | %7
[M:1/4] B,,>B,, |[M:4/4] C,3 [C,A,C] [C,B,C]2 [C,B,C]2 |[M:3/4] [F,A,C]6 | %10
[M:1/4][K:treble] [F,CF]>[F,B,F] |[M:4/4] [F,A,F]>[F,A,F] [F,A,F]>[F,A,F] [F,A,F]2 F>G | %12
 A6[K:bass][K:treble] z2 | E6[K:bass][K:treble] z2 | A6[K:bass] z2 | %15
[M:3/4] [F,A,C]>[F,A,C] [F,A,C]>[F,B,C] [F,CF]2 |[M:1/4] [F,B,C]>[F,A,C] | %17
[M:9/8] [B,,B,]>[B,,B,][B,,B,]- [B,,B,]/[B,,B,]/ [B,,B,]2- [B,,B,][B,,B,]>[B,,B,] | %18
[M:4/4][K:treble] [F,A,F]3 [B,DG] [CF]2[K:bass] [C,B,C]2 |[M:3/4] [A,C]2 z2 z2 |] %20
V:3
 x8 | x8 | z2 E2 F2 C>C | x8 | E2 DD C2 C>C | x8 |[M:3/4] z2 EE F2 |[M:1/4] x2 |[M:4/4] x8 | %9
[M:3/4] x6 |[M:1/4] x2 |[M:4/4] x8 | z2 C>C C2 B>A | z2 C>C C2 d>d | z2 C>C C2 C>C |[M:3/4] x6 | %16
[M:1/4] x2 |[M:9/8] x9 |[M:4/4] x8 |[M:3/4] z2 D2 C2 |] %20
V:4
 x8 | x8 | x8 | x8 | x8 | x8 |[M:3/4] x6 |[M:1/4] x2 |[M:4/4] x8 |[M:3/4] x6 | %10
[M:1/4][K:treble] x2 |[M:4/4] x8 | z2[K:bass] F,>F, F,2[K:treble] G>F | %13
 z2[K:bass] C,>C, C,2[K:treble] B>B | z2[K:bass] F,>F, F,2 [F,A,]>[F,A,] |[M:3/4] x6 |[M:1/4] x2 | %17
[M:9/8] x9 |[M:4/4][K:treble] x6[K:bass] x2 |[M:3/4] F,2- [F,-B,]2 [F,A,]2 |] %20

